report_00007_2020-12-11T15:55:29.892Z/mainthread-work-breakdown/comparison/line/6_vs_7.svg

<svg width="640" height="500" xmlns="http://www.w3.org/2000/svg" xmlns:xlink="http://www.w3.org/1999/xlink"><path fill="#fff" d="M0 0h640v500H0z"/><defs><path id="d" stroke-width=".222" stroke="currentColor" d="M-1-1h2v2h-2z"/><path id="b" stroke-width=".222" stroke="currentColor" d="M0-1.33l-1.33 2h2.66z"/><path id="f" stroke-width=".222" stroke="currentColor" d="M0 1.33L1.265.411.782-1.067l-1.564-.009-.483 1.487z"/><use xlink:href="#b" id="c" stroke="currentColor" transform="rotate(180)"/><use xlink:href="#d" id="e" stroke="currentColor" transform="rotate(45)"/><circle id="a" stroke-width=".222" stroke="currentColor" cx="0" cy="0" r="1"/></defs><g fill="none" color="#000" stroke="currentColor"><path stroke="#000" d="M53.9 368.1h9m552.1 0h-9"/><text transform="translate(45.6 372)" stroke="none" fill="#000" font-family="Arial" font-size="12" text-anchor="end"><tspan>600</tspan></text></g><g fill="none" color="#000" stroke="currentColor"><path stroke="#000" d="M53.9 302.7h9m552.1 0h-9"/><text transform="translate(45.6 306.6)" stroke="none" fill="#000" font-family="Arial" font-size="12" text-anchor="end"><tspan>650</tspan></text></g><g fill="none" color="#000" stroke="currentColor"><path stroke="#000" d="M53.9 237.2h9m552.1 0h-9"/><text transform="translate(45.6 241.1)" stroke="none" fill="#000" font-family="Arial" font-size="12" text-anchor="end"><tspan>700</tspan></text></g><g fill="none" color="#000" stroke="currentColor"><path stroke="#000" d="M53.9 171.8h9m552.1 0h-9"/><text transform="translate(45.6 175.7)" stroke="none" fill="#000" font-family="Arial" font-size="12" text-anchor="end"><tspan>750</tspan></text></g><g fill="none" color="#000" stroke="currentColor"><path stroke="#000" d="M53.9 106.3h9m552.1 0h-9"/><text transform="translate(45.6 110.2)" stroke="none" fill="#000" font-family="Arial" font-size="12" text-anchor="end"><tspan>800</tspan></text></g><g fill="none" color="#000" stroke="currentColor"><path stroke="#000" d="M53.9 40.9h9m552.1 0h-9"/><text transform="translate(45.6 44.8)" stroke="none" fill="#000" font-family="Arial" font-size="12" text-anchor="end"><tspan>850</tspan></text></g><g fill="none" color="#000" stroke="currentColor"><path stroke="#000" d="M53.9 392v-9m0-364.9v9"/><text transform="translate(53.9 413.9)" stroke="none" fill="#000" font-family="Arial" font-size="12" text-anchor="middle"><tspan>0</tspan></text></g><g fill="none" color="#000" stroke="currentColor"><path stroke="#000" d="M110.6 392v-9m0-364.9v9"/><text transform="translate(110.6 413.9)" stroke="none" fill="#000" font-family="Arial" font-size="12" text-anchor="middle"><tspan>10</tspan></text></g><g fill="none" color="#000" stroke="currentColor"><path stroke="#000" d="M167.3 392v-9m0-364.9v9"/><text transform="translate(167.3 413.9)" stroke="none" fill="#000" font-family="Arial" font-size="12" text-anchor="middle"><tspan>20</tspan></text></g><g fill="none" color="#000" stroke="currentColor"><path stroke="#000" d="M223.9 392v-9m0-364.9v9"/><text transform="translate(223.9 413.9)" stroke="none" fill="#000" font-family="Arial" font-size="12" text-anchor="middle"><tspan>30</tspan></text></g><g fill="none" color="#000" stroke="currentColor"><path stroke="#000" d="M280.6 392v-9m0-364.9v9"/><text transform="translate(280.6 413.9)" stroke="none" fill="#000" font-family="Arial" font-size="12" text-anchor="middle"><tspan>40</tspan></text></g><g fill="none" color="#000" stroke="currentColor"><path stroke="#000" d="M337.3 392v-9m0-364.9v9"/><text transform="translate(337.3 413.9)" stroke="none" fill="#000" font-family="Arial" font-size="12" text-anchor="middle"><tspan>50</tspan></text></g><g fill="none" color="#000" stroke="currentColor"><path stroke="#000" d="M394 392v-9m0-364.9v9"/><text transform="translate(394 413.9)" stroke="none" fill="#000" font-family="Arial" font-size="12" text-anchor="middle"><tspan>60</tspan></text></g><g fill="none" color="#000" stroke="currentColor"><path stroke="#000" d="M450.6 392v-9m0-364.9v9"/><text transform="translate(450.6 413.9)" stroke="none" fill="#000" font-family="Arial" font-size="12" text-anchor="middle"><tspan>70</tspan></text></g><g fill="none" color="#000" stroke="currentColor"><path stroke="#000" d="M507.3 392v-9m0-364.9v9"/><text transform="translate(507.3 413.9)" stroke="none" fill="#000" font-family="Arial" font-size="12" text-anchor="middle"><tspan>80</tspan></text></g><g fill="none" color="#000" stroke="currentColor"><path stroke="#000" d="M564 392v-9m0-364.9v9"/><text transform="translate(564 413.9)" stroke="none" fill="#000" font-family="Arial" font-size="12" text-anchor="middle"><tspan>90</tspan></text></g><path stroke="#000" d="M53.9 18.1V392H615V18.1H53.9z" fill="none" color="#000"/><text transform="translate(433.7 431.9)" stroke="none" fill="#000" font-family="Arial" font-size="12" text-anchor="end" color="#000"><tspan>pages+cached+noexternal+nofonts</tspan></text><path stroke="#9400D3" d="M442 428h42.2M53.9 276.2l5.7 46.7 5.6-57.1 5.7-5.9 5.7 4 5.6 7.7 5.7 49.3 5.7-41.3 5.6 47.2 5.7-32 5.7-31.5 5.6 31.9 5.7-37.4 5.7 69.9 5.6-43.5 5.7-5.6 5.7-12.1 5.7 12.1 5.6-13.4 5.7 27.8 5.7 35.8 5.6-116.7 5.7 54.9 5.7-8.6 5.6-7.6 5.7-.3 5.7 21.8 5.6 1 5.7 1.9 5.7 19.4 5.6-5.1 5.7-17.5 5.7 1.1 5.6 18.2 5.7 20.4 5.7-13.4 5.6 26.5 5.7-70.5 5.7-3.2 5.6-44.3 5.7 92.3 5.7 11.4 5.6 10 5.7-48.6 5.7-45.1 5.6 71 5.7-40.3 5.7 52.2 5.6 38.1 5.7-38.7 5.7-16.3L343 268l5.6-1.7 5.7 11.8 5.7 25.2 5.6-24.4 5.7-4.6 5.7 26.5 5.6-15.6 5.7-19.2 5.7 76.1 5.6-55.3 5.7 29.4 5.7-29.5 5.6 42.1 5.7-2.8 5.7-37.7 5.6 13.1 5.7-7.2 5.7-36.4 5.6 7.3 5.7 16.4 5.7-21.4 5.6 93.9 5.7-47 5.7-20 5.6 29.3 5.7-19.4 5.7-35.6 5.6-29.6 5.7 70.8 5.7-24.9 5.6 39.6 5.7 29 5.7-68.7 5.7 10.9 5.6 10.3 5.7 43.1 5.7-51.8 5.6 13.9 5.7-3.4 5.7-25.4 5.6 2.5 5.7 58.2 5.7 49 5.6-83.5 5.7-37.5 5.7 26 5.6-24 5.7 2" fill="none" color="#000"/><text transform="translate(433.7 449.9)" stroke="none" fill="#000" font-family="Arial" font-size="12" text-anchor="end" color="#000"><tspan>pages+cached+noexternal+nosvg</tspan></text><path stroke="#009E73" d="M442 446h42.2M53.9 183.4l5.7-40.2 5.6 6 5.7 9.7 5.7 6.8 5.6-34.8 5.7 3.6 5.7 29.7 5.6-22.4 5.7.4 5.7 22.2 5.6-139.1 5.7 136.1 5.7 4.3 5.6-47.5 5.7 37.9 5.7-31.6 5.7 53.4 5.6-17.3 5.7-10 5.7-19.5 5.6 39.9 5.7-4.2 5.7 4.2 5.6-6.8 5.7-15.9 5.7-22.5 5.6 13.7 5.7 12.6 5.7-9.1 5.6 16.6 5.7-42.4 5.7 30.6 5.6 15.8 5.7 29.3 5.7-75.6 5.6-22 5.7 25.6 5.7 37.8 5.6-9.4 5.7 31.5 5.7-49.4 5.6 52.4 5.7-25.6 5.7-1.3 5.6 6.1 5.7 33.5 5.7-30.9 5.6-3.6 5.7-38.3 5.7 53 5.7-35.1 5.6 26.1 5.7 4.7 5.7 3.7 5.6-32.2 5.7 16.7 5.7-6 5.6-33.7 5.7 29.5 5.7-24.1 5.6 29.6 5.7 21L411 146l5.6-23.8 5.7-1.2 5.7 36.7 5.6-28.7 5.7-52.4 5.7 84.1 5.6-41 5.7 13.9 5.7-8.3 5.6 10.6 5.7 20.6 5.7-16 5.6 19.6 5.7-12.6 5.7-12.9 5.6 20.2 5.7-25.6 5.7-5.4 5.6 54.1 5.7 1.8 5.7-44.9 5.7-10 5.6 25.7 5.7-16.1 5.7 22.9 5.6 9.2 5.7 2.2 5.7-1.8 5.6 7.6 5.7 2.1 5.7 2.8 5.6-51.3 5.7 40.7 5.7-52.3 5.6 14.9 5.7-12.8" fill="none" color="#000"/><text transform="translate(433.7 467.9)" stroke="none" fill="#000" font-family="Arial" font-size="12" text-anchor="end" color="#000"><tspan>score p10=2017</tspan></text><path stroke="#56B4E9" d="M442 464h42.2" fill="none" color="#000"/><g><text transform="translate(433.7 485.9)" stroke="none" fill="#000" font-family="Arial" font-size="12" text-anchor="end" color="#000"><tspan>score median=4000</tspan></text><path stroke="#E69F00" d="M442 482h42.2" fill="none" color="#000"/></g><g fill="none" color="#000" stroke="currentColor"><path stroke="#000" d="M53.9 18.1V392H615V18.1H53.9z"/></g></svg>

<?xml version="1.0" encoding="utf-8"  standalone="no"?>
<svg 
 width="640" height="500"
 viewBox="0 0 640 500"
 xmlns="http://www.w3.org/2000/svg"
 xmlns:xlink="http://www.w3.org/1999/xlink"
>

<title>Gnuplot</title>
<desc>Produced by GNUPLOT 5.4 patchlevel 0 </desc>

<g id="gnuplot_canvas">

<rect x="0" y="0" width="640" height="500" fill="#ffffff"/>
<defs>

	<circle id='gpDot' r='0.5' stroke-width='0.5' stroke='currentColor'/>
	<path id='gpPt0' stroke-width='0.222' stroke='currentColor' d='M-1,0 h2 M0,-1 v2'/>
	<path id='gpPt1' stroke-width='0.222' stroke='currentColor' d='M-1,-1 L1,1 M1,-1 L-1,1'/>
	<path id='gpPt2' stroke-width='0.222' stroke='currentColor' d='M-1,0 L1,0 M0,-1 L0,1 M-1,-1 L1,1 M-1,1 L1,-1'/>
	<rect id='gpPt3' stroke-width='0.222' stroke='currentColor' x='-1' y='-1' width='2' height='2'/>
	<rect id='gpPt4' stroke-width='0.222' stroke='currentColor' fill='currentColor' x='-1' y='-1' width='2' height='2'/>
	<circle id='gpPt5' stroke-width='0.222' stroke='currentColor' cx='0' cy='0' r='1'/>
	<use xlink:href='#gpPt5' id='gpPt6' fill='currentColor' stroke='none'/>
	<path id='gpPt7' stroke-width='0.222' stroke='currentColor' d='M0,-1.33 L-1.33,0.67 L1.33,0.67 z'/>
	<use xlink:href='#gpPt7' id='gpPt8' fill='currentColor' stroke='none'/>
	<use xlink:href='#gpPt7' id='gpPt9' stroke='currentColor' transform='rotate(180)'/>
	<use xlink:href='#gpPt9' id='gpPt10' fill='currentColor' stroke='none'/>
	<use xlink:href='#gpPt3' id='gpPt11' stroke='currentColor' transform='rotate(45)'/>
	<use xlink:href='#gpPt11' id='gpPt12' fill='currentColor' stroke='none'/>
	<path id='gpPt13' stroke-width='0.222' stroke='currentColor' d='M0,1.330 L1.265,0.411 L0.782,-1.067 L-0.782,-1.076 L-1.265,0.411 z'/>
	<use xlink:href='#gpPt13' id='gpPt14' fill='currentColor' stroke='none'/>
	<filter id='textbox' filterUnits='objectBoundingBox' x='0' y='0' height='1' width='1'>
	  <feFlood flood-color='#FFFFFF' flood-opacity='1' result='bgnd'/>
	  <feComposite in='SourceGraphic' in2='bgnd' operator='atop'/>
	</filter>
	<filter id='greybox' filterUnits='objectBoundingBox' x='0' y='0' height='1' width='1'>
	  <feFlood flood-color='lightgrey' flood-opacity='1' result='grey'/>
	  <feComposite in='SourceGraphic' in2='grey' operator='atop'/>
	</filter>
</defs>
<g fill="none" color="#FFFFFF" stroke="black" stroke-width="1.00" stroke-linecap="butt" stroke-linejoin="miter">
</g>
<g fill="none" color="black" stroke="currentColor" stroke-width="1.00" stroke-linecap="butt" stroke-linejoin="miter">
	<path stroke='black'  d='M53.9,368.1 L62.9,368.1 M615.0,368.1 L606.0,368.1  '/>	<g transform="translate(45.6,372.0)" stroke="none" fill="black" font-family="Arial" font-size="12.00"  text-anchor="end">
		<text><tspan font-family="Arial" > 600</tspan></text>
	</g>
</g>
<g fill="none" color="black" stroke="currentColor" stroke-width="1.00" stroke-linecap="butt" stroke-linejoin="miter">
	<path stroke='black'  d='M53.9,302.7 L62.9,302.7 M615.0,302.7 L606.0,302.7  '/>	<g transform="translate(45.6,306.6)" stroke="none" fill="black" font-family="Arial" font-size="12.00"  text-anchor="end">
		<text><tspan font-family="Arial" > 650</tspan></text>
	</g>
</g>
<g fill="none" color="black" stroke="currentColor" stroke-width="1.00" stroke-linecap="butt" stroke-linejoin="miter">
	<path stroke='black'  d='M53.9,237.2 L62.9,237.2 M615.0,237.2 L606.0,237.2  '/>	<g transform="translate(45.6,241.1)" stroke="none" fill="black" font-family="Arial" font-size="12.00"  text-anchor="end">
		<text><tspan font-family="Arial" > 700</tspan></text>
	</g>
</g>
<g fill="none" color="black" stroke="currentColor" stroke-width="1.00" stroke-linecap="butt" stroke-linejoin="miter">
	<path stroke='black'  d='M53.9,171.8 L62.9,171.8 M615.0,171.8 L606.0,171.8  '/>	<g transform="translate(45.6,175.7)" stroke="none" fill="black" font-family="Arial" font-size="12.00"  text-anchor="end">
		<text><tspan font-family="Arial" > 750</tspan></text>
	</g>
</g>
<g fill="none" color="black" stroke="currentColor" stroke-width="1.00" stroke-linecap="butt" stroke-linejoin="miter">
	<path stroke='black'  d='M53.9,106.3 L62.9,106.3 M615.0,106.3 L606.0,106.3  '/>	<g transform="translate(45.6,110.2)" stroke="none" fill="black" font-family="Arial" font-size="12.00"  text-anchor="end">
		<text><tspan font-family="Arial" > 800</tspan></text>
	</g>
</g>
<g fill="none" color="black" stroke="currentColor" stroke-width="1.00" stroke-linecap="butt" stroke-linejoin="miter">
	<path stroke='black'  d='M53.9,40.9 L62.9,40.9 M615.0,40.9 L606.0,40.9  '/>	<g transform="translate(45.6,44.8)" stroke="none" fill="black" font-family="Arial" font-size="12.00"  text-anchor="end">
		<text><tspan font-family="Arial" > 850</tspan></text>
	</g>
</g>
<g fill="none" color="black" stroke="currentColor" stroke-width="1.00" stroke-linecap="butt" stroke-linejoin="miter">
	<path stroke='black'  d='M53.9,392.0 L53.9,383.0 M53.9,18.1 L53.9,27.1  '/>	<g transform="translate(53.9,413.9)" stroke="none" fill="black" font-family="Arial" font-size="12.00"  text-anchor="middle">
		<text><tspan font-family="Arial" > 0</tspan></text>
	</g>
</g>
<g fill="none" color="black" stroke="currentColor" stroke-width="1.00" stroke-linecap="butt" stroke-linejoin="miter">
	<path stroke='black'  d='M110.6,392.0 L110.6,383.0 M110.6,18.1 L110.6,27.1  '/>	<g transform="translate(110.6,413.9)" stroke="none" fill="black" font-family="Arial" font-size="12.00"  text-anchor="middle">
		<text><tspan font-family="Arial" > 10</tspan></text>
	</g>
</g>
<g fill="none" color="black" stroke="currentColor" stroke-width="1.00" stroke-linecap="butt" stroke-linejoin="miter">
	<path stroke='black'  d='M167.3,392.0 L167.3,383.0 M167.3,18.1 L167.3,27.1  '/>	<g transform="translate(167.3,413.9)" stroke="none" fill="black" font-family="Arial" font-size="12.00"  text-anchor="middle">
		<text><tspan font-family="Arial" > 20</tspan></text>
	</g>
</g>
<g fill="none" color="black" stroke="currentColor" stroke-width="1.00" stroke-linecap="butt" stroke-linejoin="miter">
	<path stroke='black'  d='M223.9,392.0 L223.9,383.0 M223.9,18.1 L223.9,27.1  '/>	<g transform="translate(223.9,413.9)" stroke="none" fill="black" font-family="Arial" font-size="12.00"  text-anchor="middle">
		<text><tspan font-family="Arial" > 30</tspan></text>
	</g>
</g>
<g fill="none" color="black" stroke="currentColor" stroke-width="1.00" stroke-linecap="butt" stroke-linejoin="miter">
	<path stroke='black'  d='M280.6,392.0 L280.6,383.0 M280.6,18.1 L280.6,27.1  '/>	<g transform="translate(280.6,413.9)" stroke="none" fill="black" font-family="Arial" font-size="12.00"  text-anchor="middle">
		<text><tspan font-family="Arial" > 40</tspan></text>
	</g>
</g>
<g fill="none" color="black" stroke="currentColor" stroke-width="1.00" stroke-linecap="butt" stroke-linejoin="miter">
	<path stroke='black'  d='M337.3,392.0 L337.3,383.0 M337.3,18.1 L337.3,27.1  '/>	<g transform="translate(337.3,413.9)" stroke="none" fill="black" font-family="Arial" font-size="12.00"  text-anchor="middle">
		<text><tspan font-family="Arial" > 50</tspan></text>
	</g>
</g>
<g fill="none" color="black" stroke="currentColor" stroke-width="1.00" stroke-linecap="butt" stroke-linejoin="miter">
	<path stroke='black'  d='M394.0,392.0 L394.0,383.0 M394.0,18.1 L394.0,27.1  '/>	<g transform="translate(394.0,413.9)" stroke="none" fill="black" font-family="Arial" font-size="12.00"  text-anchor="middle">
		<text><tspan font-family="Arial" > 60</tspan></text>
	</g>
</g>
<g fill="none" color="black" stroke="currentColor" stroke-width="1.00" stroke-linecap="butt" stroke-linejoin="miter">
	<path stroke='black'  d='M450.6,392.0 L450.6,383.0 M450.6,18.1 L450.6,27.1  '/>	<g transform="translate(450.6,413.9)" stroke="none" fill="black" font-family="Arial" font-size="12.00"  text-anchor="middle">
		<text><tspan font-family="Arial" > 70</tspan></text>
	</g>
</g>
<g fill="none" color="black" stroke="currentColor" stroke-width="1.00" stroke-linecap="butt" stroke-linejoin="miter">
	<path stroke='black'  d='M507.3,392.0 L507.3,383.0 M507.3,18.1 L507.3,27.1  '/>	<g transform="translate(507.3,413.9)" stroke="none" fill="black" font-family="Arial" font-size="12.00"  text-anchor="middle">
		<text><tspan font-family="Arial" > 80</tspan></text>
	</g>
</g>
<g fill="none" color="black" stroke="currentColor" stroke-width="1.00" stroke-linecap="butt" stroke-linejoin="miter">
	<path stroke='black'  d='M564.0,392.0 L564.0,383.0 M564.0,18.1 L564.0,27.1  '/>	<g transform="translate(564.0,413.9)" stroke="none" fill="black" font-family="Arial" font-size="12.00"  text-anchor="middle">
		<text><tspan font-family="Arial" > 90</tspan></text>
	</g>
</g>
<g fill="none" color="black" stroke="currentColor" stroke-width="1.00" stroke-linecap="butt" stroke-linejoin="miter">
</g>
<g fill="none" color="black" stroke="currentColor" stroke-width="1.00" stroke-linecap="butt" stroke-linejoin="miter">
	<path stroke='black'  d='M53.9,18.1 L53.9,392.0 L615.0,392.0 L615.0,18.1 L53.9,18.1 Z  '/></g>
<g fill="none" color="black" stroke="currentColor" stroke-width="1.00" stroke-linecap="butt" stroke-linejoin="miter">
</g>
	<g id="gnuplot_plot_1" ><title>pages+cached+noexternal+nofonts</title>
<g fill="none" color="black" stroke="currentColor" stroke-width="1.00" stroke-linecap="butt" stroke-linejoin="miter">
	<g transform="translate(433.7,431.9)" stroke="none" fill="black" font-family="Arial" font-size="12.00"  text-anchor="end">
		<text><tspan font-family="Arial" >pages+cached+noexternal+nofonts</tspan></text>
	</g>
</g>
<g fill="none" color="black" stroke="currentColor" stroke-width="1.00" stroke-linecap="butt" stroke-linejoin="miter">
	<path stroke='rgb(148,   0, 211)'  d='M442.0,428.0 L484.2,428.0 M53.9,276.2 L59.6,322.9 L65.2,265.8 L70.9,259.9 L76.6,263.9 L82.2,271.6
		L87.9,320.9 L93.6,279.6 L99.2,326.8 L104.9,294.8 L110.6,263.3 L116.2,295.2 L121.9,257.8 L127.6,327.7
		L133.2,284.2 L138.9,278.6 L144.6,266.5 L150.3,278.6 L155.9,265.2 L161.6,293.0 L167.3,328.8 L172.9,212.1
		L178.6,267.0 L184.3,258.4 L189.9,250.8 L195.6,250.5 L201.3,272.3 L206.9,273.3 L212.6,275.2 L218.3,294.6
		L223.9,289.5 L229.6,272.0 L235.3,273.1 L240.9,291.3 L246.6,311.7 L252.3,298.3 L257.9,324.8 L263.6,254.3
		L269.3,251.1 L274.9,206.8 L280.6,299.1 L286.3,310.5 L291.9,320.5 L297.6,271.9 L303.3,226.8 L308.9,297.8
		L314.6,257.5 L320.3,309.7 L325.9,347.8 L331.6,309.1 L337.3,292.8 L343.0,268.0 L348.6,266.3 L354.3,278.1
		L360.0,303.3 L365.6,278.9 L371.3,274.3 L377.0,300.8 L382.6,285.2 L388.3,266.0 L394.0,342.1 L399.6,286.8
		L405.3,316.2 L411.0,286.7 L416.6,328.8 L422.3,326.0 L428.0,288.3 L433.6,301.4 L439.3,294.2 L445.0,257.8
		L450.6,265.1 L456.3,281.5 L462.0,260.1 L467.6,354.0 L473.3,307.0 L479.0,287.0 L484.6,316.3 L490.3,296.9
		L496.0,261.3 L501.6,231.7 L507.3,302.5 L513.0,277.6 L518.6,317.2 L524.3,346.2 L530.0,277.5 L535.7,288.4
		L541.3,298.7 L547.0,341.8 L552.7,290.0 L558.3,303.9 L564.0,300.5 L569.7,275.1 L575.3,277.6 L581.0,335.8
		L586.7,384.8 L592.3,301.3 L598.0,263.8 L603.7,289.8 L609.3,265.8 L615.0,267.8  '/></g>
	</g>
	<g id="gnuplot_plot_2" ><title>pages+cached+noexternal+nosvg</title>
<g fill="none" color="black" stroke="currentColor" stroke-width="1.00" stroke-linecap="butt" stroke-linejoin="miter">
	<g transform="translate(433.7,449.9)" stroke="none" fill="black" font-family="Arial" font-size="12.00"  text-anchor="end">
		<text><tspan font-family="Arial" >pages+cached+noexternal+nosvg</tspan></text>
	</g>
</g>
<g fill="none" color="black" stroke="currentColor" stroke-width="1.00" stroke-linecap="butt" stroke-linejoin="miter">
	<path stroke='rgb(  0, 158, 115)'  d='M442.0,446.0 L484.2,446.0 M53.9,183.4 L59.6,143.2 L65.2,149.2 L70.9,158.9 L76.6,165.7 L82.2,130.9
		L87.9,134.5 L93.6,164.2 L99.2,141.8 L104.9,142.2 L110.6,164.4 L116.2,25.3 L121.9,161.4 L127.6,165.7
		L133.2,118.2 L138.9,156.1 L144.6,124.5 L150.3,177.9 L155.9,160.6 L161.6,150.6 L167.3,131.1 L172.9,171.0
		L178.6,166.8 L184.3,171.0 L189.9,164.2 L195.6,148.3 L201.3,125.8 L206.9,139.5 L212.6,152.1 L218.3,143.0
		L223.9,159.6 L229.6,117.2 L235.3,147.8 L240.9,163.6 L246.6,192.9 L252.3,117.3 L257.9,95.3 L263.6,120.9
		L269.3,158.7 L274.9,149.3 L280.6,180.8 L286.3,131.4 L291.9,183.8 L297.6,158.2 L303.3,156.9 L308.9,163.0
		L314.6,196.5 L320.3,165.6 L325.9,162.0 L331.6,123.7 L337.3,176.7 L343.0,141.6 L348.6,167.7 L354.3,172.4
		L360.0,176.1 L365.6,143.9 L371.3,160.6 L377.0,154.6 L382.6,120.9 L388.3,150.4 L394.0,126.3 L399.6,155.9
		L405.3,176.9 L411.0,146.0 L416.6,122.2 L422.3,121.0 L428.0,157.7 L433.6,129.0 L439.3,76.6 L445.0,160.7
		L450.6,119.7 L456.3,133.6 L462.0,125.3 L467.6,135.9 L473.3,156.5 L479.0,140.5 L484.6,160.1 L490.3,147.5
		L496.0,134.6 L501.6,154.8 L507.3,129.2 L513.0,123.8 L518.6,177.9 L524.3,179.7 L530.0,134.8 L535.7,124.8
		L541.3,150.5 L547.0,134.4 L552.7,157.3 L558.3,166.5 L564.0,168.7 L569.7,166.9 L575.3,174.5 L581.0,176.6
		L586.7,179.4 L592.3,128.1 L598.0,168.8 L603.7,116.5 L609.3,131.4 L615.0,118.6  '/></g>
	</g>
	<g id="gnuplot_plot_3" ><title>score p10=2017</title>
<g fill="none" color="black" stroke="currentColor" stroke-width="1.00" stroke-linecap="butt" stroke-linejoin="miter">
	<g transform="translate(433.7,467.9)" stroke="none" fill="black" font-family="Arial" font-size="12.00"  text-anchor="end">
		<text><tspan font-family="Arial" >score p10=2017</tspan></text>
	</g>
</g>
<g fill="none" color="black" stroke="currentColor" stroke-width="1.00" stroke-linecap="butt" stroke-linejoin="miter">
	<path stroke='rgb( 86, 180, 233)'  d='M442.0,464.0 L484.2,464.0  '/></g>
	</g>
	<g id="gnuplot_plot_4" ><title>score median=4000</title>
<g fill="none" color="black" stroke="currentColor" stroke-width="1.00" stroke-linecap="butt" stroke-linejoin="miter">
	<g transform="translate(433.7,485.9)" stroke="none" fill="black" font-family="Arial" font-size="12.00"  text-anchor="end">
		<text><tspan font-family="Arial" >score median=4000</tspan></text>
	</g>
</g>
<g fill="none" color="black" stroke="currentColor" stroke-width="1.00" stroke-linecap="butt" stroke-linejoin="miter">
	<path stroke='rgb(230, 159,   0)'  d='M442.0,482.0 L484.2,482.0  '/></g>
	</g>
<g fill="none" color="#FFFFFF" stroke="rgb(230, 159,   0)" stroke-width="2.00" stroke-linecap="butt" stroke-linejoin="miter">
</g>
<g fill="none" color="black" stroke="currentColor" stroke-width="2.00" stroke-linecap="butt" stroke-linejoin="miter">
</g>
<g fill="none" color="black" stroke="black" stroke-width="1.00" stroke-linecap="butt" stroke-linejoin="miter">
</g>
<g fill="none" color="black" stroke="currentColor" stroke-width="1.00" stroke-linecap="butt" stroke-linejoin="miter">
	<path stroke='black'  d='M53.9,18.1 L53.9,392.0 L615.0,392.0 L615.0,18.1 L53.9,18.1 Z  '/></g>
<g fill="none" color="black" stroke="currentColor" stroke-width="1.00" stroke-linecap="butt" stroke-linejoin="miter">
</g>
</g>
</svg>
